!!!OTL@@DE: Abschiedslied
!!!COM: Dichter
!!!OMD: Entschlossen
!!!LYR: Schubart, Chr. F. D.
!!!LDT: 1787
!!!OCL: Erk, Ludwig
!!!GCO: Deutscher Liederschatz, Band 2
**kern	**kern	**kern
*staff3	*staff2	*staff1
*Ipiano	*Ipiano	*Ivox
*clefF4	*clefG2	*clefG2
*k[f#c#]	*k[f#c#]	*k[f#c#]
*D:	*D:	*D:
*met(C)	*met(C)	*met(C)
*M4/4	*M4/4	*M4/4
4AA\ 4A\	4a/	4a/
=1	=1	=1
4.D\ 4.d\	4.dd\	4.dd\
8AA\ 8A\	8a/	8a/
8AA/ 8A/L	8a/L	8a/L
8GG/ 8G/	8g/	8g/J
8FF#/ 8F#/	8f#/	8f#/L
8EE/ 8E/J	8e/J	8e/J
=2	=2	=2
4DD/ 4D/	4d/	4d/
8.D\L	8.F#/ 8.A/ 8.d/L	4d/
16D\Jk	16F#/ 16A/ 16d/Jk	.
4D\	4F#/ 4A/ 4d/	4.d/
4DD/ 4D/	4f#/ 4a/ 4dd/	.
.	.	8f#/
=3	=3	=3
4EE/ 4E/	4e/ 4a/ 4cc#/	8e/L
.	.	8a/J
4EE/ 4E/	4e/ 4a/ 4cc#/	8cc#\L
.	.	8ee\J
4EE/ 4E/	4d/ 4g#/ 4b/	8ee\L
.	.	8dd\J
4EE/ 4E/	4d/ 4g#/ 4b/	8cc#\L
.	.	8b\J
=4	=4	=4
4AA\ 4A\	4c#/ 4a/	2a/
4AAA/ 4AA/	8.A/L	.
.	16A/Jk	.
4AAA/ 4AA/	4A/	4r
4r	4r	8a/L
.	.	8g/J
=5	=5	=5
8D\ 8F#\L	4d/ 4f#/	4f#/
8A\	.	.
8AA\	4d/ 4f#/	4f#/
8A\J	.	.
8D\ 8F#\L	4.d/ 4.f#/	4.f#/
8A\	.	.
8AA\	.	.
8A\J	8f#/ 8a/	8a/
=6	=6	=6
8C#\ 8E\L	(8f#/ 8a/L	(8a/L
8A\	8e/) 8g/	8g/J)
8AA\	(8e/ 8g/	(8g/L
8A\J	8d#/) 8f#/J	8f#/J)
8C#\ 8E\L	4e/ 4g/	4g/
8A\	.	.
8AA\	(8e/ 8g/L	8g/L
8A\J	8dn/) 8f#/J	8f#/J
=7	=7	=7
8E\ 8G\L	4c#/ 4e/	4e/
8A\	.	.
8AA\	4c#/ 4e/	4e/
8A\J	.	.
8E\ 8G\L	4.c#/ 4.e/	4.e/
8A\	.	.
8AA\	.	.
8A\J	8e/ 8g/	8g/
=8	=8	=8
8D\ 8F#\L	(8e/ 8g/L	8g/L
8A\	8d/) 8f#/	8f#/J
8AA\	(8d/ 8f#/	8f#/L
8A\J	8c#/) 8e/J	8e/J
8D\ 8F#\L	4.d/ 4.f#/	4.f#/
8A\	.	.
8AA\	.	.
8A\J	8a/	8a/
=9	=9	=9
4.D\ 4.d\	4.dd\	4.dd\
8AA\ 8A\	8a/	8a/
8GG/ 8G/L	8g/L	8g/L
8FF#/ 8F#/	8f#/	8f#/J
8EE/ 8E/	8e/	8e/L
8DD/ 8D/J	8d/J	8d/J
=10	=10	=10
4AA\ 4A\	4a/	4a/
4AA\ 4A\	4c#/ 4e/ 4a/	4r
4GG/ 4G/	4e/ 4a/ 4cc#/	2cc#^\
4GG/ 4G/	4c#/ 4e/ 4a/	.
=11	=11	=11
4FF#/ 4F#/	4.d/ 4.a/ 4.dd/	4.dd\
4GG/ 4G/	.	.
.	8d/ 8g/ 8b/	8b\
4AA\ 4A\	4d/ 4f#/ 4a/	8a/L
.	.	8f#/J
4AAA/ 4AA/	4G/ 4A/ 4c#/	(8g/L
.	.	8e/J)
=12	=12	=12
4DD/ 4D/	4F#/ 4A/ 4d/	4d/
4DD/ 4D/	8.F#/ 8.A/ 8.d/L	4r
.	16F#/ 16A/ 16d/Jk	.
8DD/ 8D/	8F#/ 8A/ 8d/	4r;
8r;	8r;	.
==	==	==
*-	*-	*-
!!!ENC: Craig Stuart Sapp
!!!END: 2004/05/19/
!!!EFL: 209/600
